images/50331078.svg

<?xml version="1.0" encoding="UTF-8"?>
<svg xmlns="http://www.w3.org/2000/svg" xmlns:xlink="http://www.w3.org/1999/xlink" width="300pt" height="300pt" viewBox="0 0 300 300" version="1.1">
<defs>
<g>
<symbol overflow="visible" id="glyph0-0">
<path style="stroke:none;" d="M 0.453125 1.59375 L 0.453125 -6.34375 L 4.953125 -6.34375 L 4.953125 1.59375 Z M 0.953125 1.09375 L 4.453125 1.09375 L 4.453125 -5.84375 L 0.953125 -5.84375 Z M 0.953125 1.09375 "/>
</symbol>
<symbol overflow="visible" id="glyph0-1">
<path style="stroke:none;" d="M 0.890625 -6.5625 L 4.65625 -6.5625 L 4.65625 -5.8125 L 1.765625 -5.8125 L 1.765625 -3.875 L 4.375 -3.875 L 4.375 -3.140625 L 1.765625 -3.140625 L 1.765625 0 L 0.890625 0 Z M 0.890625 -6.5625 "/>
</symbol>
<symbol overflow="visible" id="glyph0-2">
<path style="stroke:none;" d="M 0.890625 -6.5625 L 2.078125 -6.5625 L 4.984375 -1.078125 L 4.984375 -6.5625 L 5.84375 -6.5625 L 5.84375 0 L 4.65625 0 L 1.75 -5.484375 L 1.75 0 L 0.890625 0 Z M 0.890625 -6.5625 "/>
</symbol>
<symbol overflow="visible" id="glyph0-3">
<path style="stroke:none;" d="M 0.890625 -6.5625 L 1.765625 -6.5625 L 1.765625 -3.875 L 5 -3.875 L 5 -6.5625 L 5.890625 -6.5625 L 5.890625 0 L 5 0 L 5 -3.125 L 1.765625 -3.125 L 1.765625 0 L 0.890625 0 Z M 0.890625 -6.5625 "/>
</symbol>
<symbol overflow="visible" id="glyph0-4">
<path style="stroke:none;" d="M 3.546875 -5.953125 C 2.898438 -5.953125 2.382812 -5.710938 2 -5.234375 C 1.625 -4.753906 1.4375 -4.101562 1.4375 -3.28125 C 1.4375 -2.445312 1.625 -1.789062 2 -1.3125 C 2.382812 -0.832031 2.898438 -0.59375 3.546875 -0.59375 C 4.191406 -0.59375 4.703125 -0.832031 5.078125 -1.3125 C 5.453125 -1.789062 5.640625 -2.445312 5.640625 -3.28125 C 5.640625 -4.101562 5.453125 -4.753906 5.078125 -5.234375 C 4.703125 -5.710938 4.191406 -5.953125 3.546875 -5.953125 Z M 3.546875 -6.6875 C 4.460938 -6.6875 5.195312 -6.375 5.75 -5.75 C 6.300781 -5.132812 6.578125 -4.3125 6.578125 -3.28125 C 6.578125 -2.238281 6.300781 -1.410156 5.75 -0.796875 C 5.195312 -0.179688 4.460938 0.125 3.546875 0.125 C 2.617188 0.125 1.878906 -0.179688 1.328125 -0.796875 C 0.773438 -1.410156 0.5 -2.238281 0.5 -3.28125 C 0.5 -4.3125 0.773438 -5.132812 1.328125 -5.75 C 1.878906 -6.375 2.617188 -6.6875 3.546875 -6.6875 Z M 3.546875 -6.6875 "/>
</symbol>
</g>
</defs>
<g id="surface26133">
<rect x="0" y="0" width="300" height="300" style="fill:rgb(100%,100%,100%);fill-opacity:1;stroke:none;"/>
<path style="fill:none;stroke-width:1.2;stroke-linecap:butt;stroke-linejoin:miter;stroke:rgb(20%,80%,80%);stroke-opacity:1;stroke-miterlimit:10;" d="M 35.25 178.792969 L 42.101562 174.097656 "/>
<path style="fill:none;stroke-width:1.2;stroke-linecap:butt;stroke-linejoin:miter;stroke:rgb(0%,0%,0%);stroke-opacity:1;stroke-miterlimit:10;" d="M 42.101562 174.097656 L 48.953125 169.398438 "/>
<path style=" stroke:none;fill-rule:nonzero;fill:rgb(100%,100%,100%);fill-opacity:1;" d="M 29.25 173.292969 L 35.25 173.292969 L 35.25 184.292969 L 29.25 184.292969 Z M 29.25 173.292969 "/>
<g style="fill:rgb(20%,80%,80%);fill-opacity:1;">
  <use xlink:href="#glyph0-1" x="29.25" y="181.956055"/>
</g>
<path style="fill:none;stroke-width:1.2;stroke-linecap:butt;stroke-linejoin:miter;stroke:rgb(0%,0%,0%);stroke-opacity:1;stroke-miterlimit:10;" d="M 48.953125 169.398438 L 47.667969 152.835938 "/>
<path style="fill:none;stroke-width:1.2;stroke-linecap:butt;stroke-linejoin:miter;stroke:rgb(0%,0%,0%);stroke-opacity:1;stroke-miterlimit:10;" d="M 52.71875 167.441406 L 51.695312 154.191406 "/>
<path style="fill:none;stroke-width:1.2;stroke-linecap:butt;stroke-linejoin:miter;stroke:rgb(0%,0%,0%);stroke-opacity:1;stroke-miterlimit:10;" d="M 63.9375 176.570312 L 48.953125 169.398438 "/>
<path style="fill:none;stroke-width:1.2;stroke-linecap:butt;stroke-linejoin:miter;stroke:rgb(0%,0%,0%);stroke-opacity:1;stroke-miterlimit:10;" d="M 47.667969 152.835938 L 61.371094 143.445312 "/>
<path style="fill:none;stroke-width:1.2;stroke-linecap:butt;stroke-linejoin:miter;stroke:rgb(0%,0%,0%);stroke-opacity:1;stroke-miterlimit:10;" d="M 61.371094 143.445312 L 76.355469 150.613281 "/>
<path style="fill:none;stroke-width:1.2;stroke-linecap:butt;stroke-linejoin:miter;stroke:rgb(0%,0%,0%);stroke-opacity:1;stroke-miterlimit:10;" d="M 61.179688 147.6875 L 73.171875 153.421875 "/>
<path style="fill:none;stroke-width:1.2;stroke-linecap:butt;stroke-linejoin:miter;stroke:rgb(0%,0%,0%);stroke-opacity:1;stroke-miterlimit:10;" d="M 76.355469 150.613281 L 83.207031 145.917969 "/>
<path style="fill:none;stroke-width:1.2;stroke-linecap:butt;stroke-linejoin:miter;stroke:rgb(0%,0%,100%);stroke-opacity:1;stroke-miterlimit:10;" d="M 83.207031 145.917969 L 90.058594 141.21875 "/>
<path style="fill:none;stroke-width:1.2;stroke-linecap:butt;stroke-linejoin:miter;stroke:rgb(0%,0%,0%);stroke-opacity:1;stroke-miterlimit:10;" d="M 76.355469 150.613281 L 77.640625 167.175781 "/>
<path style="fill:none;stroke-width:1.2;stroke-linecap:butt;stroke-linejoin:miter;stroke:rgb(0%,0%,100%);stroke-opacity:1;stroke-miterlimit:10;" d="M 90.058594 141.21875 L 97.550781 144.804688 "/>
<path style="fill:none;stroke-width:1.2;stroke-linecap:butt;stroke-linejoin:miter;stroke:rgb(0%,0%,0%);stroke-opacity:1;stroke-miterlimit:10;" d="M 97.550781 144.804688 L 105.042969 148.390625 "/>
<path style=" stroke:none;fill-rule:nonzero;fill:rgb(100%,100%,100%);fill-opacity:1;" d="M 83.058594 135.71875 L 97.058594 135.71875 L 97.058594 146.71875 L 83.058594 146.71875 Z M 83.058594 135.71875 "/>
<g style="fill:rgb(0%,0%,100%);fill-opacity:1;">
  <use xlink:href="#glyph0-2" x="83.058594" y="144.381836"/>
  <use xlink:href="#glyph0-3" x="90.036133" y="144.381836"/>
</g>
<path style="fill:none;stroke-width:1.2;stroke-linecap:butt;stroke-linejoin:miter;stroke:rgb(0%,0%,0%);stroke-opacity:1;stroke-miterlimit:10;" d="M 105.042969 148.390625 L 105.683594 156.671875 "/>
<path style="fill:none;stroke-width:1.2;stroke-linecap:butt;stroke-linejoin:miter;stroke:rgb(0%,0%,100%);stroke-opacity:1;stroke-miterlimit:10;" d="M 105.683594 156.671875 L 106.328125 164.953125 "/>
<path style="fill:none;stroke-width:1.2;stroke-linecap:butt;stroke-linejoin:miter;stroke:rgb(0%,0%,0%);stroke-opacity:1;stroke-miterlimit:10;" d="M 109.070312 149.742188 L 109.582031 156.367188 "/>
<path style="fill:none;stroke-width:1.2;stroke-linecap:butt;stroke-linejoin:miter;stroke:rgb(0%,0%,100%);stroke-opacity:1;stroke-miterlimit:10;" d="M 109.582031 156.367188 L 110.09375 162.992188 "/>
<path style="fill:none;stroke-width:1.2;stroke-linecap:butt;stroke-linejoin:miter;stroke:rgb(0%,0%,0%);stroke-opacity:1;stroke-miterlimit:10;" d="M 118.746094 138.996094 L 105.042969 148.390625 "/>
<path style="fill:none;stroke-width:1.2;stroke-linecap:butt;stroke-linejoin:miter;stroke:rgb(0%,0%,100%);stroke-opacity:1;stroke-miterlimit:10;" d="M 106.328125 164.953125 L 113.820312 168.535156 "/>
<path style="fill:none;stroke-width:1.2;stroke-linecap:butt;stroke-linejoin:miter;stroke:rgb(0%,0%,0%);stroke-opacity:1;stroke-miterlimit:10;" d="M 113.820312 168.535156 L 121.3125 172.121094 "/>
<path style=" stroke:none;fill-rule:nonzero;fill:rgb(100%,100%,100%);fill-opacity:1;" d="M 103.328125 159.453125 L 110.328125 159.453125 L 110.328125 170.453125 L 103.328125 170.453125 Z M 103.328125 159.453125 "/>
<g style="fill:rgb(0%,0%,100%);fill-opacity:1;">
  <use xlink:href="#glyph0-2" x="103.328125" y="168.116211"/>
</g>
<path style="fill:none;stroke-width:1.2;stroke-linecap:butt;stroke-linejoin:miter;stroke:rgb(0%,0%,0%);stroke-opacity:1;stroke-miterlimit:10;" d="M 121.3125 172.121094 L 135.015625 162.730469 "/>
<path style="fill:none;stroke-width:1.2;stroke-linecap:butt;stroke-linejoin:miter;stroke:rgb(0%,0%,0%);stroke-opacity:1;stroke-miterlimit:10;" d="M 120.472656 167.957031 L 131.433594 160.445312 "/>
<path style="fill:none;stroke-width:1.2;stroke-linecap:butt;stroke-linejoin:miter;stroke:rgb(0%,0%,0%);stroke-opacity:1;stroke-miterlimit:10;" d="M 135.015625 162.730469 L 133.730469 146.164062 "/>
<path style="fill:none;stroke-width:1.2;stroke-linecap:butt;stroke-linejoin:miter;stroke:rgb(0%,0%,0%);stroke-opacity:1;stroke-miterlimit:10;" d="M 133.730469 146.164062 L 118.746094 138.996094 "/>
<path style="fill:none;stroke-width:1.2;stroke-linecap:butt;stroke-linejoin:miter;stroke:rgb(0%,0%,0%);stroke-opacity:1;stroke-miterlimit:10;" d="M 130.546875 148.976562 L 118.554688 143.238281 "/>
<path style="fill:none;stroke-width:1.2;stroke-linecap:butt;stroke-linejoin:miter;stroke:rgb(0%,0%,0%);stroke-opacity:1;stroke-miterlimit:10;" d="M 133.730469 146.164062 L 147.433594 136.773438 "/>
<path style="fill:none;stroke-width:1.2;stroke-linecap:butt;stroke-linejoin:miter;stroke:rgb(0%,0%,0%);stroke-opacity:1;stroke-miterlimit:10;" d="M 147.433594 136.773438 L 162.417969 143.941406 "/>
<path style="fill:none;stroke-width:1.2;stroke-linecap:butt;stroke-linejoin:miter;stroke:rgb(0%,0%,0%);stroke-opacity:1;stroke-miterlimit:10;" d="M 150.617188 133.964844 L 162.605469 139.699219 "/>
<path style="fill:none;stroke-width:1.2;stroke-linecap:butt;stroke-linejoin:miter;stroke:rgb(0%,0%,0%);stroke-opacity:1;stroke-miterlimit:10;" d="M 146.148438 120.210938 L 147.433594 136.773438 "/>
<path style="fill:none;stroke-width:1.2;stroke-linecap:butt;stroke-linejoin:miter;stroke:rgb(0%,0%,0%);stroke-opacity:1;stroke-miterlimit:10;" d="M 162.417969 143.941406 L 176.121094 134.550781 "/>
<path style="fill:none;stroke-width:1.2;stroke-linecap:butt;stroke-linejoin:miter;stroke:rgb(0%,0%,0%);stroke-opacity:1;stroke-miterlimit:10;" d="M 176.121094 134.550781 L 175.476562 126.269531 "/>
<path style="fill:none;stroke-width:1.2;stroke-linecap:butt;stroke-linejoin:miter;stroke:rgb(0%,0%,100%);stroke-opacity:1;stroke-miterlimit:10;" d="M 175.476562 126.269531 L 174.835938 117.984375 "/>
<path style="fill:none;stroke-width:1.2;stroke-linecap:butt;stroke-linejoin:miter;stroke:rgb(0%,0%,0%);stroke-opacity:1;stroke-miterlimit:10;" d="M 172.09375 133.195312 L 171.582031 126.570312 "/>
<path style="fill:none;stroke-width:1.2;stroke-linecap:butt;stroke-linejoin:miter;stroke:rgb(0%,0%,100%);stroke-opacity:1;stroke-miterlimit:10;" d="M 171.582031 126.570312 L 171.066406 119.945312 "/>
<path style="fill:none;stroke-width:1.2;stroke-linecap:butt;stroke-linejoin:miter;stroke:rgb(0%,0%,0%);stroke-opacity:1;stroke-miterlimit:10;" d="M 176.121094 134.550781 L 183.613281 138.132812 "/>
<path style="fill:none;stroke-width:1.2;stroke-linecap:butt;stroke-linejoin:miter;stroke:rgb(0%,0%,100%);stroke-opacity:1;stroke-miterlimit:10;" d="M 183.613281 138.132812 L 191.105469 141.71875 "/>
<path style="fill:none;stroke-width:1.2;stroke-linecap:butt;stroke-linejoin:miter;stroke:rgb(0%,0%,100%);stroke-opacity:1;stroke-miterlimit:10;" d="M 174.835938 117.984375 L 167.34375 114.402344 "/>
<path style="fill:none;stroke-width:1.2;stroke-linecap:butt;stroke-linejoin:miter;stroke:rgb(0%,0%,0%);stroke-opacity:1;stroke-miterlimit:10;" d="M 167.34375 114.402344 L 159.851562 110.816406 "/>
<path style=" stroke:none;fill-rule:nonzero;fill:rgb(100%,100%,100%);fill-opacity:1;" d="M 171.835938 112.484375 L 178.835938 112.484375 L 178.835938 123.484375 L 171.835938 123.484375 Z M 171.835938 112.484375 "/>
<g style="fill:rgb(0%,0%,100%);fill-opacity:1;">
  <use xlink:href="#glyph0-2" x="171.835938" y="121.147461"/>
</g>
<path style="fill:none;stroke-width:1.2;stroke-linecap:butt;stroke-linejoin:miter;stroke:rgb(0%,0%,0%);stroke-opacity:1;stroke-miterlimit:10;" d="M 159.851562 110.816406 L 146.148438 120.210938 "/>
<path style="fill:none;stroke-width:1.2;stroke-linecap:butt;stroke-linejoin:miter;stroke:rgb(0%,0%,0%);stroke-opacity:1;stroke-miterlimit:10;" d="M 160.691406 114.980469 L 149.730469 122.496094 "/>
<path style="fill:none;stroke-width:1.2;stroke-linecap:butt;stroke-linejoin:miter;stroke:rgb(0%,0%,100%);stroke-opacity:1;stroke-miterlimit:10;" d="M 191.105469 141.71875 L 191.746094 150 "/>
<path style="fill:none;stroke-width:1.2;stroke-linecap:butt;stroke-linejoin:miter;stroke:rgb(0%,0%,0%);stroke-opacity:1;stroke-miterlimit:10;" d="M 191.746094 150 L 192.390625 158.28125 "/>
<path style=" stroke:none;fill-rule:nonzero;fill:rgb(100%,100%,100%);fill-opacity:1;" d="M 184.105469 136.21875 L 198.105469 136.21875 L 198.105469 147.21875 L 184.105469 147.21875 Z M 184.105469 136.21875 "/>
<g style="fill:rgb(0%,0%,100%);fill-opacity:1;">
  <use xlink:href="#glyph0-2" x="184.105469" y="144.881836"/>
  <use xlink:href="#glyph0-3" x="191.083008" y="144.881836"/>
</g>
<path style="fill:none;stroke-width:1.2;stroke-linecap:butt;stroke-linejoin:miter;stroke:rgb(0%,0%,0%);stroke-opacity:1;stroke-miterlimit:10;" d="M 191.285156 156.667969 L 184.433594 161.367188 "/>
<path style="fill:none;stroke-width:1.2;stroke-linecap:butt;stroke-linejoin:miter;stroke:rgb(100%,0%,0%);stroke-opacity:1;stroke-miterlimit:10;" d="M 184.433594 161.367188 L 177.582031 166.0625 "/>
<path style="fill:none;stroke-width:1.2;stroke-linecap:butt;stroke-linejoin:miter;stroke:rgb(0%,0%,0%);stroke-opacity:1;stroke-miterlimit:10;" d="M 193.496094 159.894531 L 186.644531 164.589844 "/>
<path style="fill:none;stroke-width:1.2;stroke-linecap:butt;stroke-linejoin:miter;stroke:rgb(100%,0%,0%);stroke-opacity:1;stroke-miterlimit:10;" d="M 186.644531 164.589844 L 179.792969 169.285156 "/>
<path style="fill:none;stroke-width:1.2;stroke-linecap:butt;stroke-linejoin:miter;stroke:rgb(0%,0%,0%);stroke-opacity:1;stroke-miterlimit:10;" d="M 192.390625 158.28125 L 207.375 165.449219 "/>
<path style=" stroke:none;fill-rule:nonzero;fill:rgb(100%,100%,100%);fill-opacity:1;" d="M 170.6875 162.175781 L 178.6875 162.175781 L 178.6875 173.175781 L 170.6875 173.175781 Z M 170.6875 162.175781 "/>
<g style="fill:rgb(100%,0%,0%);fill-opacity:1;">
  <use xlink:href="#glyph0-4" x="170.6875" y="170.838867"/>
</g>
<path style="fill:none;stroke-width:1.2;stroke-linecap:butt;stroke-linejoin:miter;stroke:rgb(0%,0%,0%);stroke-opacity:1;stroke-miterlimit:10;" d="M 207.375 165.449219 L 208.660156 182.015625 "/>
<path style="fill:none;stroke-width:1.2;stroke-linecap:butt;stroke-linejoin:miter;stroke:rgb(0%,0%,0%);stroke-opacity:1;stroke-miterlimit:10;" d="M 221.078125 156.058594 L 207.375 165.449219 "/>
<path style="fill:none;stroke-width:1.2;stroke-linecap:butt;stroke-linejoin:miter;stroke:rgb(0%,0%,0%);stroke-opacity:1;stroke-miterlimit:10;" d="M 208.660156 182.015625 L 223.644531 189.183594 "/>
<path style="fill:none;stroke-width:1.2;stroke-linecap:butt;stroke-linejoin:miter;stroke:rgb(0%,0%,0%);stroke-opacity:1;stroke-miterlimit:10;" d="M 223.644531 189.183594 L 237.347656 179.789062 "/>
<path style="fill:none;stroke-width:1.2;stroke-linecap:butt;stroke-linejoin:miter;stroke:rgb(0%,0%,0%);stroke-opacity:1;stroke-miterlimit:10;" d="M 237.347656 179.789062 L 236.703125 171.507812 "/>
<path style="fill:none;stroke-width:1.2;stroke-linecap:butt;stroke-linejoin:miter;stroke:rgb(0%,0%,100%);stroke-opacity:1;stroke-miterlimit:10;" d="M 236.703125 171.507812 L 236.0625 163.226562 "/>
<path style="fill:none;stroke-width:1.2;stroke-linecap:butt;stroke-linejoin:miter;stroke:rgb(0%,0%,100%);stroke-opacity:1;stroke-miterlimit:10;" d="M 236.0625 163.226562 L 228.570312 159.640625 "/>
<path style="fill:none;stroke-width:1.2;stroke-linecap:butt;stroke-linejoin:miter;stroke:rgb(0%,0%,0%);stroke-opacity:1;stroke-miterlimit:10;" d="M 228.570312 159.640625 L 221.078125 156.058594 "/>
<path style="fill:none;stroke-width:1.2;stroke-linecap:butt;stroke-linejoin:miter;stroke:rgb(0%,0%,100%);stroke-opacity:1;stroke-miterlimit:10;" d="M 236.0625 163.226562 L 242.914062 158.53125 "/>
<path style="fill:none;stroke-width:1.2;stroke-linecap:butt;stroke-linejoin:miter;stroke:rgb(0%,0%,0%);stroke-opacity:1;stroke-miterlimit:10;" d="M 242.914062 158.53125 L 249.765625 153.835938 "/>
<path style=" stroke:none;fill-rule:nonzero;fill:rgb(100%,100%,100%);fill-opacity:1;" d="M 233.0625 157.726562 L 240.0625 157.726562 L 240.0625 168.726562 L 233.0625 168.726562 Z M 233.0625 157.726562 "/>
<g style="fill:rgb(0%,0%,100%);fill-opacity:1;">
  <use xlink:href="#glyph0-2" x="233.0625" y="166.389648"/>
</g>
<path style="fill:none;stroke-width:1.2;stroke-linecap:butt;stroke-linejoin:miter;stroke:rgb(0%,0%,0%);stroke-opacity:1;stroke-miterlimit:10;" d="M 251.714844 153.683594 L 251.070312 145.402344 "/>
<path style="fill:none;stroke-width:1.2;stroke-linecap:butt;stroke-linejoin:miter;stroke:rgb(100%,0%,0%);stroke-opacity:1;stroke-miterlimit:10;" d="M 251.070312 145.402344 L 250.429688 137.121094 "/>
<path style="fill:none;stroke-width:1.2;stroke-linecap:butt;stroke-linejoin:miter;stroke:rgb(0%,0%,0%);stroke-opacity:1;stroke-miterlimit:10;" d="M 247.816406 153.984375 L 247.175781 145.703125 "/>
<path style="fill:none;stroke-width:1.2;stroke-linecap:butt;stroke-linejoin:miter;stroke:rgb(100%,0%,0%);stroke-opacity:1;stroke-miterlimit:10;" d="M 247.175781 145.703125 L 246.53125 137.421875 "/>
<path style="fill:none;stroke-width:1.2;stroke-linecap:butt;stroke-linejoin:miter;stroke:rgb(0%,0%,0%);stroke-opacity:1;stroke-miterlimit:10;" d="M 249.765625 153.835938 L 264.75 161.003906 "/>
<path style=" stroke:none;fill-rule:nonzero;fill:rgb(100%,100%,100%);fill-opacity:1;" d="M 244.480469 131.769531 L 252.480469 131.769531 L 252.480469 142.769531 L 244.480469 142.769531 Z M 244.480469 131.769531 "/>
<g style="fill:rgb(100%,0%,0%);fill-opacity:1;">
  <use xlink:href="#glyph0-4" x="244.480469" y="140.432617"/>
</g>
<path style="fill:none;stroke-width:1.2;stroke-linecap:butt;stroke-linejoin:miter;stroke:rgb(0%,0%,0%);stroke-opacity:1;stroke-miterlimit:10;" d="M 77.640625 167.175781 L 63.9375 176.570312 "/>
<path style="fill:none;stroke-width:1.2;stroke-linecap:butt;stroke-linejoin:miter;stroke:rgb(0%,0%,0%);stroke-opacity:1;stroke-miterlimit:10;" d="M 74.058594 164.890625 L 63.097656 172.40625 "/>
</g>
</svg>

<svg xmlns="http://www.w3.org/2000/svg" xmlns:xlink="http://www.w3.org/1999/xlink" width="300pt" height="300pt" viewBox="0 0 300 300"><defs><symbol overflow="visible"><path d="M.453 1.594v-7.938h4.5v7.938zm.5-.5h3.5v-6.938h-3.5zm0 0"/></symbol><symbol overflow="visible" id="a"><path d="M.89-6.563h3.766v.75h-2.89v1.938h2.61v.734h-2.61V0H.89zm0 0"/></symbol><symbol overflow="visible" id="b"><path d="M.89-6.563H2.08l2.906 5.485v-5.484h.86V0H4.656L1.75-5.484V0H.89zm0 0"/></symbol><symbol overflow="visible" id="c"><path d="M.89-6.563h.876v2.688H5v-2.688h.89V0H5v-3.125H1.766V0H.89zm0 0"/></symbol><symbol overflow="visible" id="d"><path d="M3.547-5.953c-.65 0-1.164.242-1.547.72-.375.48-.563 1.13-.563 1.952 0 .835.188 1.49.563 1.967.383.48.898.72 1.547.72.644 0 1.156-.24 1.53-.72.376-.476.564-1.132.564-1.968 0-.822-.187-1.474-.562-1.954-.375-.477-.887-.72-1.53-.72zm0-.734c.914 0 1.648.312 2.203.937.55.617.828 1.438.828 2.47 0 1.042-.277 1.87-.828 2.483-.555.617-1.29.922-2.203.922-.93 0-1.668-.305-2.22-.922C.774-1.41.5-2.237.5-3.28c0-1.033.273-1.853.828-2.47.55-.625 1.29-.938 2.22-.938zm0 0"/></symbol></defs><g><path fill="#fff" d="M0 0h300v300H0z"/><path d="M35.25 178.793l6.852-4.695" stroke-width="1.2" stroke="#3cc" stroke-miterlimit="10" fill="none"/><path d="M42.102 174.098l6.85-4.7" stroke-width="1.2" stroke="#000" stroke-miterlimit="10" fill="none"/><path d="M29.25 173.293h6v11h-6zm0 0" fill="#fff"/><use xlink:href="#a" x="29.25" y="181.956" fill="#3cc"/><path d="M48.953 169.398l-1.285-16.562M52.72 167.44l-1.025-13.25M63.938 176.57l-14.985-7.172M47.668 152.836l13.703-9.39M61.37 143.445l14.985 7.168M61.18 147.688l11.992 5.734M76.355 150.613l6.852-4.695" stroke-width="1.2" stroke="#000" stroke-miterlimit="10" fill="none"/><path d="M83.207 145.918l6.852-4.7" stroke-width="1.2" stroke="#00f" stroke-miterlimit="10" fill="none"/><path d="M76.355 150.613l1.286 16.563" stroke-width="1.2" stroke="#000" stroke-miterlimit="10" fill="none"/><path d="M90.06 141.22l7.49 3.585" stroke-width="1.2" stroke="#00f" stroke-miterlimit="10" fill="none"/><path d="M97.55 144.805l7.493 3.586" stroke-width="1.2" stroke="#000" stroke-miterlimit="10" fill="none"/><path d="M83.06 135.72h14v11h-14zm0 0" fill="#fff"/><g fill="#00f"><use xlink:href="#b" x="83.059" y="144.382"/><use xlink:href="#c" x="90.036" y="144.382"/></g><path d="M105.043 148.39l.64 8.282" stroke-width="1.2" stroke="#000" stroke-miterlimit="10" fill="none"/><path d="M105.684 156.672l.644 8.28" stroke-width="1.2" stroke="#00f" stroke-miterlimit="10" fill="none"/><path d="M109.07 149.742l.512 6.625" stroke-width="1.2" stroke="#000" stroke-miterlimit="10" fill="none"/><path d="M109.582 156.367l.512 6.625" stroke-width="1.2" stroke="#00f" stroke-miterlimit="10" fill="none"/><path d="M118.746 138.996l-13.703 9.395" stroke-width="1.2" stroke="#000" stroke-miterlimit="10" fill="none"/><path d="M106.328 164.953l7.492 3.582" stroke-width="1.2" stroke="#00f" stroke-miterlimit="10" fill="none"/><path d="M113.82 168.535l7.493 3.586" stroke-width="1.2" stroke="#000" stroke-miterlimit="10" fill="none"/><path d="M103.328 159.453h7v11h-7zm0 0" fill="#fff"/><use xlink:href="#b" x="103.328" y="168.116" fill="#00f"/><path d="M121.313 172.12l13.703-9.39M120.473 167.957l10.96-7.512M135.016 162.73l-1.286-16.566M133.73 146.164l-14.984-7.168M130.547 148.977l-11.992-5.74M133.73 146.164l13.704-9.39M147.434 136.773l14.984 7.168M150.617 133.965l11.988 5.734M146.148 120.21l1.286 16.563M162.418 143.94l13.703-9.39M176.12 134.55l-.643-8.28" stroke-width="1.2" stroke="#000" stroke-miterlimit="10" fill="none"/><path d="M175.477 126.27l-.64-8.286" stroke-width="1.2" stroke="#00f" stroke-miterlimit="10" fill="none"/><path d="M172.094 133.195l-.512-6.625" stroke-width="1.2" stroke="#000" stroke-miterlimit="10" fill="none"/><path d="M171.582 126.57l-.516-6.625" stroke-width="1.2" stroke="#00f" stroke-miterlimit="10" fill="none"/><path d="M176.12 134.55l7.493 3.583" stroke-width="1.2" stroke="#000" stroke-miterlimit="10" fill="none"/><path d="M183.613 138.133l7.492 3.586M174.836 117.984l-7.492-3.582" stroke-width="1.2" stroke="#00f" stroke-miterlimit="10" fill="none"/><path d="M167.344 114.402l-7.492-3.586" stroke-width="1.2" stroke="#000" stroke-miterlimit="10" fill="none"/><path d="M171.836 112.484h7v11h-7zm0 0" fill="#fff"/><use xlink:href="#b" x="171.836" y="121.147" fill="#00f"/><path d="M159.852 110.816l-13.704 9.395M160.69 114.98l-10.96 7.516" stroke-width="1.2" stroke="#000" stroke-miterlimit="10" fill="none"/><path d="M191.105 141.72l.64 8.28" stroke-width="1.2" stroke="#00f" stroke-miterlimit="10" fill="none"/><path d="M191.746 150l.645 8.28" stroke-width="1.2" stroke="#000" stroke-miterlimit="10" fill="none"/><path d="M184.105 136.22h14v11h-14zm0 0" fill="#fff"/><g fill="#00f"><use xlink:href="#b" x="184.105" y="144.882"/><use xlink:href="#c" x="191.083" y="144.882"/></g><path d="M191.285 156.668l-6.85 4.7" stroke-width="1.2" stroke="#000" stroke-miterlimit="10" fill="none"/><path d="M184.434 161.367l-6.852 4.696" stroke-width="1.2" stroke="#f00" stroke-miterlimit="10" fill="none"/><path d="M193.496 159.895l-6.85 4.695" stroke-width="1.2" stroke="#000" stroke-miterlimit="10" fill="none"/><path d="M186.645 164.59l-6.852 4.695" stroke-width="1.2" stroke="#f00" stroke-miterlimit="10" fill="none"/><path d="M192.39 158.28l14.985 7.17" stroke-width="1.2" stroke="#000" stroke-miterlimit="10" fill="none"/><path d="M170.688 162.176h8v11h-8zm0 0" fill="#fff"/><use xlink:href="#d" x="170.688" y="170.839" fill="#f00"/><path d="M207.375 165.45l1.285 16.566M221.078 156.06l-13.703 9.39M208.66 182.016l14.985 7.168M223.645 189.184l13.703-9.395M237.348 179.79l-.645-8.282" stroke-width="1.2" stroke="#000" stroke-miterlimit="10" fill="none"/><path d="M236.703 171.508l-.64-8.28M236.063 163.227l-7.493-3.586" stroke-width="1.2" stroke="#00f" stroke-miterlimit="10" fill="none"/><path d="M228.57 159.64l-7.492-3.58" stroke-width="1.2" stroke="#000" stroke-miterlimit="10" fill="none"/><path d="M236.063 163.227l6.85-4.696" stroke-width="1.2" stroke="#00f" stroke-miterlimit="10" fill="none"/><path d="M242.914 158.53l6.852-4.694" stroke-width="1.2" stroke="#000" stroke-miterlimit="10" fill="none"/><path d="M233.063 157.727h7v11h-7zm0 0" fill="#fff"/><use xlink:href="#b" x="233.063" y="166.39" fill="#00f"/><path d="M251.715 153.684l-.645-8.282" stroke-width="1.2" stroke="#000" stroke-miterlimit="10" fill="none"/><path d="M251.07 145.402l-.64-8.28" stroke-width="1.2" stroke="#f00" stroke-miterlimit="10" fill="none"/><path d="M247.816 153.984l-.64-8.28" stroke-width="1.2" stroke="#000" stroke-miterlimit="10" fill="none"/><path d="M247.176 145.703l-.645-8.28" stroke-width="1.2" stroke="#f00" stroke-miterlimit="10" fill="none"/><path d="M249.766 153.836l14.984 7.168" stroke-width="1.2" stroke="#000" stroke-miterlimit="10" fill="none"/><path d="M244.48 131.77h8v11h-8zm0 0" fill="#fff"/><use xlink:href="#d" x="244.48" y="140.433" fill="#f00"/><path d="M77.64 167.176l-13.703 9.394M74.06 164.89l-10.962 7.516" stroke-width="1.2" stroke="#000" stroke-miterlimit="10" fill="none"/></g></svg>
